resources/haticons/SVG/scaleway.svg

<!-- Generated by IcoMoon.io -->
<svg version="1.1" xmlns="http://www.w3.org/2000/svg" width="24" height="24" viewBox="0 0 24 24">
<title>scaleway</title>
<path fill="#4f0599" d="M16.61 11.11v5.72c-0.033 0.869-0.688 1.576-1.531 1.689l-0.009 0.001h-4c-0.672-0.051-1.211-0.559-1.309-1.212l-0.001-0.008c-0.002-0.027-0.004-0.058-0.004-0.090s0.001-0.063 0.004-0.094l-0 0.004c0.006-0.752 0.617-1.36 1.37-1.36 0 0 0 0 0 0h1.74c0.552 0 1-0.448 1-1v0-3.62c-0-0.002-0-0.005-0-0.007 0-0.696 0.507-1.273 1.172-1.382l0.008-0.001h0.17c0.006-0 0.013-0 0.020-0 0.753 0 1.364 0.608 1.37 1.36v0.001zM10.15 12.85v-3.59c0-0.552 0.448-1 1-1v0h1.85c0.757 0 1.37-0.613 1.37-1.37v0c0.002-0.025 0.004-0.055 0.004-0.085s-0.001-0.060-0.004-0.089l0 0.004c-0.122-0.68-0.705-1.191-1.409-1.2h-3.961c-0.852 0.11-1.513 0.798-1.58 1.654l-0 0.006v5.7c0 0.757 0.613 1.37 1.37 1.37h0.21c0.658-0.123 1.15-0.693 1.15-1.378 0-0.008-0-0.016-0-0.024l0 0.001zM22.15 8.56v11.44c-0.254 2.15-1.982 3.827-4.134 3.999l-0.016 0.001h-7.58c-4.729-0.006-8.56-3.84-8.56-8.57 0 0 0 0 0-0v0-10.89c0-2.507 2.033-4.54 4.54-4.54v0h7.18c0.003 0 0.006 0 0.010 0 4.728 0 8.56 3.832 8.56 8.56 0 0 0 0 0 0v0zM19.41 8.56c-0.006-3.212-2.608-5.814-5.819-5.82h-7.191c-0.003-0-0.006-0-0.010-0-0.989 0-1.79 0.801-1.79 1.79 0 0.004 0 0.007 0 0.011v-0.001 10.89c0.017 3.203 2.615 5.794 5.819 5.8h7.441c0.786-0.103 1.406-0.702 1.538-1.469l0.002-0.011z"></path>
</svg>

<svg xmlns="http://www.w3.org/2000/svg" width="24" height="24"><path fill="#4f0599" d="M16.61 11.11v5.72a1.771 1.771 0 0 1-1.531 1.689l-.009.001h-4a1.431 1.431 0 0 1-1.309-1.212L9.76 17.3a1.217 1.217 0 0 1 0-.184v.004a1.37 1.37 0 0 1 1.37-1.36h1.74a1 1 0 0 0 1-1v-3.62-.007a1.4 1.4 0 0 1 1.172-1.382l.008-.001h.19a1.37 1.37 0 0 1 1.37 1.36v.001zm-6.46 1.74V9.26a1 1 0 0 1 1-1H13a1.37 1.37 0 0 0 1.37-1.37 1.08 1.08 0 0 0 0-.174v.004a1.452 1.452 0 0 0-1.409-1.2H9a1.814 1.814 0 0 0-1.58 1.654v5.706c0 .757.613 1.37 1.37 1.37H9a1.403 1.403 0 0 0 1.15-1.378v-.024.001zm12-4.29V20a4.537 4.537 0 0 1-4.134 3.999L18 24h-7.58a8.57 8.57 0 0 1-8.56-8.57V4.54A4.54 4.54 0 0 1 6.4 0H13.59a8.56 8.56 0 0 1 8.56 8.56zm-2.74 0a5.83 5.83 0 0 0-5.819-5.82H6.39A1.79 1.79 0 0 0 4.6 4.53v.011-.001 10.89a5.83 5.83 0 0 0 5.819 5.8h7.441a1.793 1.793 0 0 0 1.538-1.469l.002-.011z"/></svg>
